svgs/sharp-regular/goal-net.svg

<svg xmlns="http://www.w3.org/2000/svg" viewBox="0 0 640 512"><!--! Font Awesome Pro 6.6.0 by @fontawesome - https://fontawesome.com License - https://fontawesome.com/license (Commercial License) Copyright 2024 Fonticons, Inc. --><path d="M24 32L0 32 0 56 0 456l0 24 48 0 0-24L48 80l544 0 0 376 0 24 48 0 0-24 0-400 0-24-24 0L24 32zm168 96l-32 0 0 64-64 0 0 32 64 0 0 64-64 0 0 32 64 0 0 64-64 0 0 32 64 0 0 64 32 0 0-64 64 0 0 64 32 0 0-64 64 0 0 64 32 0 0-64 64 0 0 64 32 0 0-64 64 0 0-32-64 0 0-64 64 0 0-32-64 0 0-64 64 0 0-32-64 0 0-64-32 0 0 64-64 0 0-64-32 0 0 64-64 0 0-64-32 0 0 64-64 0 0-64zm64 256l-64 0 0-64 64 0 0 64zm96 0l-64 0 0-64 64 0 0 64zm96 0l-64 0 0-64 64 0 0 64zm0-96l-64 0 0-64 64 0 0 64zm-96 0l-64 0 0-64 64 0 0 64zm-96 0l-64 0 0-64 64 0 0 64z"/></svg>

<svg xmlns="http://www.w3.org/2000/svg" viewBox="0 0 640 512"><!--! Font Awesome Pro 6.4.0 by @fontawesome - https://fontawesome.com License - https://fontawesome.com/license (Commercial License) Copyright 2023 Fonticons, Inc. --><path d="M24 32H0V56 456v24H48V456 80H592V456v24h48V456 56 32H616 24zm168 96H160v64H96v32h64v64H96v32h64v64H96v32h64v64h32V416h64v64h32V416h64v64h32V416h64v64h32V416h64V384H480V320h64V288H480V224h64V192H480V128H448v64H384V128H352v64H288V128H256v64H192V128zm64 256H192V320h64v64zm96 0H288V320h64v64zm96 0H384V320h64v64zm0-96H384V224h64v64zm-96 0H288V224h64v64zm-96 0H192V224h64v64z"/></svg>
